images/day.svg

<svg viewBox="0 0 24 24" fill="none" xmlns="http://www.w3.org/2000/svg">
<path fill-rule="evenodd" clip-rule="evenodd" d="M18 4H19C20.1 4 21 4.9 21 6V20C21 21.1 20.1 22 19 22H5C3.89 22 3 21.1 3 20V6C3 4.9 3.89 4 5 4H6V2H8V4H16V2H18V4ZM5 10V20H19V10H5ZM19 8H5V6H19V8ZM12 12H7V17H12V12Z" fill="#333333"/>
</svg>

<svg viewBox="0 0 24 24" fill="none" xmlns="http://www.w3.org/2000/svg"><path fill-rule="evenodd" clip-rule="evenodd" d="M18 4h1c1.1 0 2 .9 2 2v14c0 1.1-.9 2-2 2H5a2 2 0 01-2-2V6a2 2 0 012-2h1V2h2v2h8V2h2v2zM5 10v10h14V10H5zm14-2H5V6h14v2zm-7 4H7v5h5v-5z" fill="#333"/></svg>
